images-mobile/svg/icon2.svg

<svg width="110" height="56" viewBox="0 0 110 56" fill="none" xmlns="http://www.w3.org/2000/svg">
<path fill-rule="evenodd" clip-rule="evenodd" d="M52.1135 4.93452H51.9769C51.7669 4.92181 51.557 4.91672 51.347 4.91163H51.347H51.3268H50.8917C50.4945 4.91163 50.0897 4.92181 49.6875 4.94215C49.6572 4.93994 49.6267 4.93994 49.5964 4.94215C45.9521 5.14863 42.3816 6.05951 39.0804 7.62492L38.6478 7.83344V29.9746L39.6597 29.6313C40.5476 29.3261 41.4937 29.0515 42.4727 28.7972C45.1192 28.1178 47.8366 27.7567 50.5678 27.7216V30.6306C50.2061 30.6332 49.8545 30.6434 49.5028 30.6612H49.4193C47.3174 30.7765 45.2315 31.0967 43.1912 31.6173C40.607 32.2643 38.1142 33.2357 35.7715 34.5086V6.11189C38.2046 4.69275 40.8252 3.62687 43.5554 2.94596C45.9526 2.32705 48.4168 2.00931 50.8917 2H51.3192C51.8302 2.01271 52.3285 2.0356 52.7965 2.0712C54.0296 2.15778 55.2527 2.35263 56.452 2.65353V5.51685C55.2873 5.24551 54.103 5.06695 52.9104 4.98284C52.8862 4.98079 52.862 4.97872 52.8377 4.97666C52.591 4.95561 52.3439 4.93452 52.1135 4.93452ZM57.1527 7.86163C57.7876 7.90994 58.4453 7.93283 59.1107 7.93283C61.7124 7.92332 64.303 7.59108 66.8238 6.94364C69.4067 6.29421 71.8985 5.32202 74.2409 4.0498V31.9405C71.8065 33.3587 69.1852 34.4246 66.4545 35.1064C64.057 35.7229 61.5929 36.0398 59.1182 36.0498C57.2432 36.0649 55.3736 35.8445 53.5529 35.3937V7.32253C53.9829 7.4217 54.4256 7.51325 54.8759 7.58954C55.6146 7.71414 56.3937 7.80568 57.1527 7.86163ZM71.3469 8.07778L70.335 8.41853C69.4041 8.7313 68.4656 9.01102 67.522 9.26023C64.7748 9.9662 61.9513 10.3283 59.1157 10.3384C58.4555 10.3384 57.8483 10.3206 57.2614 10.2825L56.4545 10.2291V30.3181V33.0059L57.1476 33.067C57.7901 33.1229 58.4529 33.1509 59.1208 33.1509C61.3543 33.1414 63.578 32.8536 65.7411 32.2939C67.5222 31.8472 69.2551 31.2245 70.9144 30.4351L71.3469 30.2265V8.07778Z" fill="#8E8F99"/>
<path d="M37.7373 44.2121C37.5918 44.0613 37.4164 43.9428 37.2225 43.8644C37.0286 43.786 36.8204 43.7494 36.6115 43.757C36.3889 43.754 36.1679 43.7955 35.9614 43.879C35.772 43.9544 35.5999 44.0678 35.4554 44.2121C35.3126 44.3569 35.2014 44.5302 35.1291 44.7207C35.0498 44.9204 35.0103 45.1338 35.0127 45.3488V49.1428C35.0037 49.4102 35.0547 49.6762 35.162 49.921C35.2516 50.1154 35.3808 50.2887 35.5415 50.4296C35.6931 50.5572 35.8711 50.6493 36.0626 50.6991C36.2471 50.751 36.4377 50.7775 36.6292 50.7779C36.8405 50.7801 37.0497 50.7349 37.2414 50.6457C37.4311 50.5627 37.6029 50.4436 37.7474 50.2948C37.8883 50.1474 38.0006 49.9749 38.0788 49.7862C38.1599 49.5949 38.2012 49.3889 38.2002 49.181V48.7563H37.2085V49.0945C37.2115 49.21 37.1917 49.325 37.1504 49.4327C37.1181 49.5135 37.0689 49.5863 37.0062 49.6463C36.9447 49.696 36.8743 49.7331 36.7987 49.7557C36.7318 49.778 36.6618 49.79 36.5913 49.7913C36.5028 49.8016 36.4131 49.7882 36.3313 49.7525C36.2496 49.7168 36.1787 49.66 36.1258 49.5879C36.0323 49.4354 35.9865 49.2582 35.9943 49.0793V45.5421C35.9881 45.3459 36.0298 45.1513 36.1157 44.975C36.1672 44.8949 36.24 44.831 36.3259 44.7906C36.4118 44.7501 36.5072 44.7347 36.6014 44.7462C36.6869 44.7431 36.7718 44.761 36.8489 44.7982C36.926 44.8354 36.993 44.8908 37.0441 44.9598C37.1551 45.1054 37.2131 45.2849 37.2085 45.4683V45.7964H38.1901V45.4099C38.1921 45.1829 38.1509 44.9576 38.0686 44.7462C37.9954 44.5474 37.8826 44.3657 37.7373 44.2121Z" fill="#8E8F99"/>
<path d="M43.6287 44.1691C43.3125 43.9021 42.9134 43.7546 42.5004 43.7521C42.2984 43.7529 42.0981 43.7891 41.9085 43.8589C41.7159 43.9279 41.5382 44.0332 41.3848 44.1691C41.2205 44.3168 41.0894 44.498 41.0003 44.7006C40.9004 44.9323 40.8512 45.183 40.8561 45.4355V49.0744C40.8493 49.3304 40.8985 49.5847 41.0003 49.8195C41.09 50.0151 41.2213 50.1887 41.3848 50.328C41.5364 50.4688 41.7144 50.5777 41.9085 50.6485C42.0981 50.7183 42.2984 50.7544 42.5004 50.7553C42.7024 50.7549 42.9028 50.7187 43.0924 50.6485C43.2897 50.5767 43.4717 50.468 43.6287 50.328C43.7869 50.1861 43.9143 50.013 44.0031 49.8195C44.1049 49.5847 44.1541 49.3304 44.1473 49.0744V45.4355C44.1521 45.183 44.103 44.9323 44.0031 44.7006C43.9148 44.5001 43.7875 44.3194 43.6287 44.1691ZM43.1657 49.0744C43.1741 49.1714 43.1607 49.269 43.1266 49.3601C43.0924 49.4512 43.0384 49.5334 42.9684 49.6008C42.8374 49.7106 42.6723 49.7708 42.5017 49.7708C42.3311 49.7708 42.1659 49.7106 42.0349 49.6008C41.965 49.5334 41.911 49.4512 41.8768 49.3601C41.8427 49.269 41.8293 49.1714 41.8376 49.0744V45.4355C41.8293 45.3385 41.8427 45.2409 41.8768 45.1498C41.911 45.0587 41.965 44.9764 42.0349 44.9091C42.1659 44.7993 42.3311 44.7391 42.5017 44.7391C42.6723 44.7391 42.8374 44.7993 42.9684 44.9091C43.0384 44.9764 43.0924 45.0587 43.1266 45.1498C43.1607 45.2409 43.1741 45.3385 43.1657 45.4355V49.0744Z" fill="#8E8F99"/>
<path d="M51.367 50.6994V43.8107H50.4133L49.1611 47.4572H49.1434L47.8811 43.8107H46.9375V50.6994H47.9216V46.5087H47.9393L48.9031 49.4712H49.3939L50.3653 46.5087H50.383V50.6994H51.367Z" fill="#8E8F99"/>
<path d="M56.9577 44.2937C56.8062 44.1237 56.6149 43.9943 56.4011 43.9173C56.1708 43.8424 55.9298 43.8063 55.6878 43.8105H54.2256V50.6993H55.2071V48.0089H55.7131C56.0193 48.0228 56.324 47.958 56.5985 47.8207C56.8216 47.6968 57.0077 47.515 57.1373 47.2943C57.2508 47.1111 57.3274 46.9071 57.3624 46.6942C57.4011 46.435 57.4188 46.173 57.4156 45.911C57.4251 45.5802 57.3928 45.2495 57.3194 44.9269C57.254 44.6885 57.1295 44.4706 56.9577 44.2937ZM56.4517 46.3941C56.4475 46.5188 56.4164 46.6412 56.3607 46.7527C56.3046 46.8586 56.2158 46.9434 56.1077 46.9942C55.9623 47.0593 55.8037 47.0889 55.6448 47.0807H55.197V44.7387H55.7029C55.8553 44.7312 56.0072 44.7609 56.1456 44.8251C56.2471 44.8834 56.3277 44.9724 56.3759 45.0794C56.4295 45.2004 56.4587 45.331 56.4619 45.4634C56.4619 45.6084 56.4619 45.7609 56.4619 45.9211C56.4619 46.0813 56.472 46.2466 56.4619 46.3941H56.4517Z" fill="#8E8F99"/>
<path d="M61.6074 43.8107H60.803L59.2852 50.6994H60.2667L60.5551 49.2194H61.8933L62.1817 50.6994H63.1632L61.6074 43.8107ZM60.7018 48.2811L61.185 45.784H61.2027L61.6833 48.2811H60.7018Z" fill="#8E8F99"/>
<path d="M67.9496 47.9607H67.9319L66.4494 43.8107H65.5059V50.6994H66.4874V46.557H66.5076L68.0078 50.6994H68.9311V43.8107H67.9496V47.9607Z" fill="#8E8F99"/>
<path d="M73.9471 43.8107L73.1578 46.5494H73.1376L72.3483 43.8107H71.3086L72.6569 47.7878V50.6994H73.6385V47.7878L74.9868 43.8107H73.9471Z" fill="#8E8F99"/>
<path d="M35 52.6443H35.4731V53.9717H35.7943V52.6443H36.2649V52.3722H35V52.6443Z" fill="#8E8F99"/>
<path d="M38.9772 52.3722L38.3574 53.9717H38.6989L38.8305 53.608H39.468L39.6046 53.9717H39.9537L39.3187 52.3722H38.9772ZM38.9266 53.3385L39.1442 52.746L39.3617 53.3385H38.9266Z" fill="#8E8F99"/>
<path d="M42.9084 53.3821H43.2778V53.5881C43.1699 53.6746 43.0362 53.722 42.8983 53.7229C42.8338 53.7265 42.7693 53.7145 42.7104 53.688C42.6514 53.6614 42.5996 53.6211 42.5593 53.5703C42.4745 53.4485 42.4327 53.3017 42.4404 53.1533C42.4404 52.7973 42.5947 52.6193 42.9008 52.6193C42.9814 52.6112 43.0622 52.6325 43.1285 52.6791C43.1949 52.7257 43.2424 52.7947 43.2626 52.8735L43.5788 52.8125C43.5105 52.4997 43.2853 52.3421 42.9008 52.3421C42.6952 52.3366 42.4952 52.4103 42.3418 52.5481C42.2612 52.6276 42.1988 52.7239 42.1591 52.8302C42.1193 52.9365 42.1031 53.0502 42.1116 53.1634C42.1022 53.3823 42.1754 53.5966 42.3165 53.7636C42.3948 53.8444 42.4897 53.9071 42.5945 53.9475C42.6993 53.9879 42.8116 54.0049 42.9236 53.9975C43.1739 54.0045 43.417 53.9133 43.6016 53.7432V53.1126H42.9084V53.3821Z" fill="#8E8F99"/>
<path d="M46.9224 52.3722H46.5986V53.9717H47.7193V53.6996H46.9224V52.3722Z" fill="#8E8F99"/>
<path d="M50.3179 52.3722H49.9941V53.9717H50.3179V52.3722Z" fill="#8E8F99"/>
<path d="M53.6369 53.4402L52.9817 52.3722H52.668V53.9717H52.969V52.9265L53.6116 53.9717H53.9328V52.3722H53.6369V53.4402Z" fill="#8E8F99"/>
<path d="M56.6363 53.2673H57.4332V52.9952H56.6363V52.6443H57.4939V52.3722H56.3125V53.9717H57.5268V53.6996H56.6363V53.2673Z" fill="#8E8F99"/>
<path d="M63.9121 53.0028H63.2822V52.3722H62.9609V53.9717H63.2822V53.2724H63.9121V53.9717H64.2334V52.3722H63.9121V53.0028Z" fill="#8E8F99"/>
<path d="M66.9306 53.2673H67.73V52.9952H66.9306V52.6443H67.7908V52.3722H66.6094V53.9717H67.8211V53.6996H66.9306V53.2673Z" fill="#8E8F99"/>
<path d="M71.0235 53.2676C71.3018 53.2244 71.4434 53.0769 71.4434 52.8226C71.4515 52.7546 71.4412 52.6856 71.4136 52.623C71.386 52.5603 71.3421 52.5063 71.2866 52.4666C71.1417 52.3938 70.9801 52.3614 70.8186 52.3725H70.1406V53.972H70.4619V53.3032H70.5251C70.5936 53.299 70.6621 53.3112 70.725 53.3388C70.772 53.3678 70.8111 53.4079 70.8388 53.4558L71.1879 53.9644H71.5724L71.3777 53.6516C71.2916 53.4972 71.1702 53.3656 71.0235 53.2676ZM70.6997 53.0464H70.4619V52.6446H70.7149C70.8251 52.6357 70.936 52.6486 71.0412 52.6827C71.0646 52.7034 71.0831 52.7291 71.0952 52.7579C71.1074 52.7867 71.113 52.8179 71.1115 52.8492C71.11 52.8804 71.1016 52.911 71.0868 52.9385C71.072 52.966 71.0512 52.9899 71.026 53.0082C70.9204 53.0406 70.8099 53.0535 70.6997 53.0464Z" fill="#8E8F99"/>
<path d="M74.1099 53.2673H74.9068V52.9952H74.1099V52.6443H74.97V52.3722H73.7861V53.9717H75.0004V53.6996H74.1099V53.2673Z" fill="#8E8F99"/>
</svg>

<svg xmlns="http://www.w3.org/2000/svg" width="110" height="56" fill="none"><path fill="#8E8F99" fill-rule="evenodd" d="M52.114 4.935h-.137c-.21-.013-.42-.018-.63-.023h-.455c-.398 0-.802.01-1.205.03a.627.627 0 0 0-.09 0A28.275 28.275 0 0 0 39.08 7.625l-.432.208v22.142l1.012-.344c.888-.305 1.834-.58 2.813-.834a34.329 34.329 0 0 1 8.095-1.075v2.909c-.362.002-.713.012-1.065.03h-.084a32.36 32.36 0 0 0-6.228.956 31.633 31.633 0 0 0-7.42 2.892V6.112a29.728 29.728 0 0 1 7.784-3.166A29.794 29.794 0 0 1 50.892 2h.427c.511.013 1.01.036 1.477.071 1.234.087 2.457.282 3.656.583v2.863a22.624 22.624 0 0 0-3.542-.534l-.072-.006c-.247-.021-.494-.042-.724-.042Zm5.039 2.927c.635.048 1.292.07 1.958.07a31.467 31.467 0 0 0 7.713-.988A31.774 31.774 0 0 0 74.24 4.05v27.89a29.818 29.818 0 0 1-7.787 3.166 29.943 29.943 0 0 1-7.336.944 22.405 22.405 0 0 1-5.565-.656V7.323c.43.099.873.19 1.323.267.739.124 1.518.216 2.277.272Zm14.194.216-1.012.34c-.93.313-1.87.593-2.813.842a34.264 34.264 0 0 1-8.406 1.078c-.66 0-1.268-.017-1.855-.055l-.806-.054v22.777l.693.061c.642.056 1.305.084 1.973.084a26.884 26.884 0 0 0 6.62-.857 27.763 27.763 0 0 0 5.173-1.859l.433-.208V8.077Z" clip-rule="evenodd"/><path fill="#8E8F99" d="M37.737 44.212a1.493 1.493 0 0 0-1.126-.455 1.674 1.674 0 0 0-.65.122 1.464 1.464 0 0 0-.832.842c-.08.2-.119.413-.116.628v3.794c-.01.267.042.533.149.778.09.194.219.368.38.509.151.127.33.22.52.27.185.051.376.078.567.078.212.002.42-.043.612-.132a1.598 1.598 0 0 0 .96-1.465v-.425h-.992v.338a.881.881 0 0 1-.059.339.608.608 0 0 1-.144.213.697.697 0 0 1-.415.145.504.504 0 0 1-.465-.203.898.898 0 0 1-.132-.509v-3.537c-.006-.196.036-.39.122-.567a.506.506 0 0 1 .485-.229.526.526 0 0 1 .443.214.806.806 0 0 1 .165.508v.328h.981v-.386a1.786 1.786 0 0 0-.121-.664 1.563 1.563 0 0 0-.332-.534ZM43.629 44.17a1.765 1.765 0 0 0-1.129-.418c-.202 0-.402.037-.592.107A1.558 1.558 0 0 0 41 44.7c-.1.231-.149.482-.144.735v3.638c-.007.256.042.51.144.745.09.196.221.37.385.509.151.14.33.25.523.32.19.07.39.106.592.107a1.715 1.715 0 0 0 1.129-.427c.158-.142.285-.315.374-.509.102-.234.151-.489.144-.745v-3.639a1.771 1.771 0 0 0-.144-.734 1.644 1.644 0 0 0-.374-.532Zm-.463 4.904a.654.654 0 0 1-.198.527.726.726 0 0 1-.933 0 .653.653 0 0 1-.197-.527v-3.639a.656.656 0 0 1 .197-.526.727.727 0 0 1 .933 0 .651.651 0 0 1 .198.526v3.64ZM51.367 50.7v-6.89h-.954l-1.252 3.647h-.018l-1.262-3.646h-.944v6.888h.985v-4.19h.017l.964 2.962h.49l.972-2.962h.018v4.19h.984ZM56.958 44.294c-.152-.17-.343-.3-.557-.377a2.184 2.184 0 0 0-.713-.107h-1.462v6.89h.981v-2.691h.506c.306.014.611-.051.886-.188a1.43 1.43 0 0 0 .538-.527c.114-.183.19-.387.225-.6a4.9 4.9 0 0 0 .054-.783c.01-.33-.023-.662-.097-.984a1.465 1.465 0 0 0-.361-.633Zm-.506 2.1a.868.868 0 0 1-.091.359.552.552 0 0 1-.253.241 1.006 1.006 0 0 1-.463.087h-.448v-2.342h.506a.942.942 0 0 1 .443.086.557.557 0 0 1 .23.254c.053.121.083.252.086.384v.458c0 .16.01.326 0 .473h-.01ZM61.607 43.81h-.804l-1.518 6.89h.982l.288-1.48h1.338l.289 1.48h.981l-1.556-6.89Zm-.905 4.471.483-2.497h.018l.48 2.497h-.981ZM67.95 47.96h-.018l-1.483-4.15h-.943v6.89h.981v-4.143h.02l1.5 4.142h.924v-6.888h-.981v4.15ZM73.947 43.81l-.79 2.74h-.02l-.789-2.74h-1.04l1.349 3.978v2.911h.981v-2.911l1.349-3.977h-1.04ZM35 52.644h.473v1.328h.321v-1.328h.47v-.272H35v.272ZM38.977 52.372l-.62 1.6h.342l.132-.364h.637l.137.364h.349l-.635-1.6h-.342Zm-.05.967.217-.593.218.593h-.435ZM42.908 53.382h.37v.206a.613.613 0 0 1-.38.135.403.403 0 0 1-.339-.153.67.67 0 0 1-.119-.417c0-.356.155-.534.46-.534a.337.337 0 0 1 .363.255l.316-.062c-.069-.312-.294-.47-.678-.47a.804.804 0 0 0-.56.206.78.78 0 0 0-.23.615.872.872 0 0 0 .206.6.776.776 0 0 0 .607.235.96.96 0 0 0 .678-.255v-.63h-.694v.27ZM46.922 52.372H46.6v1.6h1.12V53.7h-.797v-1.328ZM50.318 52.372h-.324v1.6h.324v-1.6ZM53.637 53.44l-.655-1.068h-.314v1.6h.301v-1.046l.643 1.046h.32v-1.6h-.295v1.068ZM56.636 53.267h.797v-.272h-.797v-.35h.858v-.273h-1.181v1.6h1.214V53.7h-.89v-.433ZM63.912 53.003h-.63v-.63h-.321v1.599h.321v-.7h.63v.7h.321v-1.6h-.32v.63ZM66.93 53.267h.8v-.272h-.8v-.35h.86v-.273h-1.18v1.6h1.211V53.7h-.89v-.433ZM71.023 53.268c.279-.044.42-.191.42-.445a.383.383 0 0 0-.156-.356.904.904 0 0 0-.468-.094h-.678v1.599h.32v-.669h.064a.432.432 0 0 1 .2.036c.047.029.086.069.114.117l.349.508h.384l-.194-.312a1.114 1.114 0 0 0-.355-.384Zm-.323-.222h-.238v-.401h.253a.84.84 0 0 1 .326.038.208.208 0 0 1 .046.255.208.208 0 0 1-.061.07.912.912 0 0 1-.326.038ZM74.11 53.267h.797v-.272h-.797v-.35h.86v-.273h-1.184v1.6H75V53.7h-.89v-.433Z"/></svg>
